assets/img/braze_icons/target-04.svg

<svg fill="none" height="24" viewBox="0 0 24 24" width="24" xmlns="http://www.w3.org/2000/svg"><g fill="#801ed7"><path clip-rule="evenodd" d="m19.1601 1.01292c.3173.05149.5905.25237.7343.53988l.8509 1.70186 1.7019.85092c.2875.14376.4883.41696.5398.73425s-.0527.63999-.28.86729l-3 3c-.1875.18754-.4418.29289-.7071.29289h-2.5857l-3.7071 3.70709c-.3905.3905-1.0237.3905-1.4142 0s-.3905-1.0237 0-1.4142l3.707-3.70705v-2.58584c0-.26521.1054-.51957.2929-.7071l3-3c.2273-.2273.55-.331475.8673-.27999z" fill-rule="evenodd"/><path d="m3 12c0-4.97056 4.02944-9 9-9 .5523 0 1-.44772 1-1s-.4477-1-1-1c-6.07513 0-11 4.92487-11 11 0 6.0751 4.92487 11 11 11 6.0751 0 11-4.9249 11-11 0-.5523-.4477-1-1-1s-1 .4477-1 1c0 4.9706-4.0294 9-9 9-4.97056 0-9-4.0294-9-9z"/><path d="m8 12c0-2.20914 1.79086-4 4-4 .5523 0 1-.44772 1-1s-.4477-1-1-1c-3.31371 0-6 2.68629-6 6 0 3.3137 2.68629 6 6 6 3.3137 0 6-2.6863 6-6 0-.5523-.4477-1-1-1s-1 .4477-1 1c0 2.2091-1.7909 4-4 4-2.20914 0-4-1.7909-4-4z"/></g></svg>

<svg width="24" height="24" viewBox="0 0 24 24" fill="none" xmlns="http://www.w3.org/2000/svg">
<path fill-rule="evenodd" clip-rule="evenodd" d="M19.1601 1.01292C19.4774 1.06441 19.7506 1.26529 19.8944 1.5528L20.7453 3.25466L22.4472 4.10558C22.7347 4.24934 22.9355 4.52254 22.987 4.83983C23.0385 5.15712 22.9343 5.47982 22.707 5.70712L19.707 8.70712C19.5195 8.89466 19.2652 9.00001 18.9999 9.00001H16.4142L12.7071 12.7071C12.3166 13.0976 11.6834 13.0976 11.2929 12.7071C10.9024 12.3166 10.9024 11.6834 11.2929 11.2929L14.9999 7.58585V5.00001C14.9999 4.7348 15.1053 4.48044 15.2928 4.29291L18.2928 1.29291C18.5201 1.06561 18.8428 0.961435 19.1601 1.01292Z" fill="#801ED7"/>
<path d="M3 12C3 7.02944 7.02944 3 12 3C12.5523 3 13 2.55228 13 2C13 1.44772 12.5523 1 12 1C5.92487 1 1 5.92487 1 12C1 18.0751 5.92487 23 12 23C18.0751 23 23 18.0751 23 12C23 11.4477 22.5523 11 22 11C21.4477 11 21 11.4477 21 12C21 16.9706 16.9706 21 12 21C7.02944 21 3 16.9706 3 12Z" fill="#801ED7"/>
<path d="M8 12C8 9.79086 9.79086 8 12 8C12.5523 8 13 7.55228 13 7C13 6.44772 12.5523 6 12 6C8.68629 6 6 8.68629 6 12C6 15.3137 8.68629 18 12 18C15.3137 18 18 15.3137 18 12C18 11.4477 17.5523 11 17 11C16.4477 11 16 11.4477 16 12C16 14.2091 14.2091 16 12 16C9.79086 16 8 14.2091 8 12Z" fill="#801ED7"/>
</svg>
